SVG_Azure_Grouped/AI/Cognitive Services Health and Life Science.svg

<?xml version="1.0" encoding="UTF-8" standalone="no"?>
<!-- Generated by Microsoft Visio, SVG Export Cognitive Services Health and Life Science.svg Page-1 -->

<svg
   xmlns:dc="http://purl.org/dc/elements/1.1/"
   xmlns:cc="http://creativecommons.org/ns#"
   xmlns:rdf="http://www.w3.org/1999/02/22-rdf-syntax-ns#"
   xmlns:svg="http://www.w3.org/2000/svg"
   xmlns="http://www.w3.org/2000/svg"
   xmlns:sodipodi="http://sodipodi.sourceforge.net/DTD/sodipodi-0.dtd"
   xmlns:inkscape="http://www.inkscape.org/namespaces/inkscape"
   width="0.78736061in"
   height="0.78736061in"
   viewBox="0 0 56.690006 56.689997"
   xml:space="preserve"
   class="st3"
   version="1.1"
   id="svg61"
   sodipodi:docname="Cognitive Services Health and Life Science.svg"
   style="font-size:12px;overflow:visible;color-interpolation-filters:sRGB;fill:none;fill-rule:evenodd;stroke-linecap:square;stroke-miterlimit:3"
   inkscape:version="0.92.5 (2060ec1f9f, 2020-04-08)"><metadata
   id="metadata67"><rdf:RDF><cc:Work
       rdf:about=""><dc:format>image/svg+xml</dc:format><dc:type
         rdf:resource="http://purl.org/dc/dcmitype/StillImage" /></cc:Work></rdf:RDF></metadata><defs
   id="defs65" /><sodipodi:namedview
   pagecolor="#ffffff"
   bordercolor="#666666"
   borderopacity="1"
   objecttolerance="10"
   gridtolerance="10"
   guidetolerance="10"
   inkscape:pageopacity="0"
   inkscape:pageshadow="2"
   inkscape:window-width="640"
   inkscape:window-height="480"
   id="namedview63"
   showgrid="false"
   inkscape:zoom="1.8244067"
   inkscape:cx="37.795264"
   inkscape:cy="19.327114"
   inkscape:window-x="0"
   inkscape:window-y="0"
   inkscape:window-maximized="0"
   inkscape:current-layer="svg61" />
	<style
   type="text/css"
   id="style2">
	<![CDATA[
		.st1 {fill:#0078d4;stroke:none;stroke-linecap:butt;stroke-width:6.30928}
		.st2 {fill:#50e6ff;stroke:none;stroke-linecap:butt;stroke-width:6.30928}
		.st3 {fill:none;fill-rule:evenodd;font-size:12px;overflow:visible;stroke-linecap:square;stroke-miterlimit:3}
	]]>
	</style>

	<g
   id="g59"
   transform="translate(-6.30928,-6.3143)">
		<title
   id="title4">Page-1</title>
		<g
   id="group18553-1"
   transform="translate(6.30928,-34.0157)">
			<title
   id="title6">Cognitive Services Health and Life Science.18553</title>
			<g
   id="shape18554-2">
				<title
   id="title8">Sheet.18554</title>
				<path
   d="M 28.35,40.33 C 12.69,40.33 0,53.02 0,68.67 0,84.33 12.69,97.02 28.35,97.02 44,97.02 56.69,84.33 56.69,68.67 56.69,53.02 44,40.33 28.35,40.33 Z m 0,0.44 c 15.38,0 27.9,12.52 27.9,27.9 0,15.39 -12.52,27.91 -27.9,27.91 -15.39,0 -27.91,-12.52 -27.91,-27.91 0,-15.38 12.52,-27.9 27.91,-27.9 z"
   class="st1"
   id="path10"
   inkscape:connector-curvature="0"
   style="fill:#0078d4;stroke:none;stroke-width:6.30927992;stroke-linecap:butt" />
			</g>
			<g
   id="shape18555-4"
   transform="translate(6.64368,-6.6437)">
				<title
   id="title13">Sheet.18555</title>
				<path
   d="M 21.7,53.61 C 9.72,53.61 0,63.33 0,75.32 c 0,11.98 9.72,21.7 21.7,21.7 11.99,0 21.71,-9.72 21.71,-21.7 0,-11.99 -9.72,-21.71 -21.71,-21.71 z m 0,0.44 c 11.73,0 21.26,9.54 21.26,21.27 0,11.72 -9.53,21.26 -21.26,21.26 C 9.98,96.58 0.44,87.04 0.44,75.32 0.44,63.59 9.98,54.05 21.7,54.05 Z"
   class="st1"
   id="path15"
   inkscape:connector-curvature="0"
   style="fill:#0078d4;stroke:none;stroke-width:6.30927992;stroke-linecap:butt" />
			</g>
			<g
   id="shape18556-6"
   transform="translate(12.8445,-12.8445)">
				<title
   id="title18">Sheet.18556</title>
				<path
   d="M 15.28,66.46 C 6.84,66.46 0,73.3 0,81.74 c 0,8.44 6.84,15.28 15.28,15.28 8.44,0 15.28,-6.84 15.28,-15.28 0,-8.44 -6.84,-15.28 -15.28,-15.28 z m 0,0.44 c 8.18,0 14.84,6.66 14.84,14.84 0,8.18 -6.66,14.83 -14.84,14.83 C 7.1,96.57 0.44,89.92 0.44,81.74 0.44,73.56 7.1,66.9 15.28,66.9 Z"
   class="st1"
   id="path20"
   inkscape:connector-curvature="0"
   style="fill:#0078d4;stroke:none;stroke-width:6.30927992;stroke-linecap:butt" />
			</g>
			<g
   id="shape18557-8"
   transform="translate(23.0315,-23.0315)">
				<title
   id="title23">Sheet.18557</title>
				<path
   d="m 10.63,91.7 c 0,2.94 -2.38,5.32 -5.32,5.32 C 2.38,97.02 0,94.64 0,91.7 c 0,-2.93 2.38,-5.31 5.31,-5.31 2.94,0 5.32,2.38 5.32,5.31 z"
   class="st1"
   id="path25"
   inkscape:connector-curvature="0"
   style="fill:#0078d4;stroke:none;stroke-width:6.30927992;stroke-linecap:butt" />
			</g>
			<g
   id="shape18558-10"
   transform="translate(38.0905,-17.7165)">
				<title
   id="title28">Sheet.18558</title>
				<path
   d="m 5.31,94.36 c 0,1.47 -1.19,2.66 -2.65,2.66 C 1.19,97.02 0,95.83 0,94.36 0,92.89 1.19,91.7 2.66,91.7 c 1.46,0 2.65,1.19 2.65,2.66 z"
   class="st1"
   id="path30"
   inkscape:connector-curvature="0"
   style="fill:#0078d4;stroke:none;stroke-width:6.30927992;stroke-linecap:butt" />
			</g>
			<g
   id="shape18559-12"
   transform="translate(10.6299,-24.8031)">
				<title
   id="title33">Sheet.18559</title>
				<path
   d="m 5.31,94.36 c 0,1.47 -1.19,2.66 -2.65,2.66 C 1.19,97.02 0,95.83 0,94.36 0,92.89 1.19,91.7 2.66,91.7 c 1.46,0 2.65,1.19 2.65,2.66 z"
   class="st1"
   id="path35"
   inkscape:connector-curvature="0"
   style="fill:#0078d4;stroke:none;stroke-width:6.30927992;stroke-linecap:butt" />
			</g>
			<g
   id="shape18560-14"
   transform="translate(30.1181,-46.063)">
				<title
   id="title38">Sheet.18560</title>
				<path
   d="m 5.31,94.36 c 0,1.47 -1.19,2.66 -2.65,2.66 C 1.19,97.02 0,95.83 0,94.36 0,92.89 1.19,91.7 2.66,91.7 c 1.46,0 2.65,1.19 2.65,2.66 z"
   class="st2"
   id="path40"
   inkscape:connector-curvature="0"
   style="fill:#50e6ff;stroke:none;stroke-width:6.30927992;stroke-linecap:butt" />
			</g>
			<g
   id="shape18561-16"
   transform="translate(40.748,-1.77165)">
				<title
   id="title43">Sheet.18561</title>
				<path
   d="m 5.31,94.36 c 0,1.47 -1.19,2.66 -2.65,2.66 C 1.19,97.02 0,95.83 0,94.36 0,92.89 1.19,91.7 2.66,91.7 c 1.46,0 2.65,1.19 2.65,2.66 z"
   class="st1"
   id="path45"
   inkscape:connector-curvature="0"
   style="fill:#0078d4;stroke:none;stroke-width:6.30927992;stroke-linecap:butt" />
			</g>
			<g
   id="shape18562-18"
   transform="translate(3.54331,-8.85827)">
				<title
   id="title48">Sheet.18562</title>
				<path
   d="m 5.31,94.36 c 0,1.47 -1.19,2.66 -2.65,2.66 C 1.19,97.02 0,95.83 0,94.36 0,92.89 1.19,91.7 2.66,91.7 c 1.46,0 2.65,1.19 2.65,2.66 z"
   class="st2"
   id="path50"
   inkscape:connector-curvature="0"
   style="fill:#50e6ff;stroke:none;stroke-width:6.30927992;stroke-linecap:butt" />
			</g>
			<g
   id="shape18563-20"
   transform="translate(47.8346,-42.5197)">
				<title
   id="title53">Sheet.18563</title>
				<path
   d="m 5.31,94.36 c 0,1.47 -1.19,2.66 -2.65,2.66 C 1.19,97.02 0,95.83 0,94.36 0,92.89 1.19,91.7 2.66,91.7 c 1.46,0 2.65,1.19 2.65,2.66 z"
   class="st1"
   id="path55"
   inkscape:connector-curvature="0"
   style="fill:#0078d4;stroke:none;stroke-width:6.30927992;stroke-linecap:butt" />
			</g>
		</g>
	</g>
</svg>

<?xml version="1.0" encoding="UTF-8" standalone="no"?>
<!DOCTYPE svg PUBLIC "-//W3C//DTD SVG 1.1//EN" "http://www.w3.org/Graphics/SVG/1.1/DTD/svg11.dtd">
<!-- Generated by Microsoft Visio, SVG Export Cognitive Services Health and Life Science.svg Page-1 -->
<svg xmlns="http://www.w3.org/2000/svg" xmlns:xlink="http://www.w3.org/1999/xlink" xmlns:ev="http://www.w3.org/2001/xml-events"
		width="0.962659in" height="1.34747in" viewBox="0 0 69.3115 97.0179" xml:space="preserve" color-interpolation-filters="sRGB"
		class="st3">
	<style type="text/css">
	<![CDATA[
		.st1 {fill:#0078d4;stroke:none;stroke-linecap:butt;stroke-width:6.30928}
		.st2 {fill:#50e6ff;stroke:none;stroke-linecap:butt;stroke-width:6.30928}
		.st3 {fill:none;fill-rule:evenodd;font-size:12px;overflow:visible;stroke-linecap:square;stroke-miterlimit:3}
	]]>
	</style>

	<g>
		<title>Page-1</title>
		<g id="group18123-1" transform="translate(6.30928,-34.0157)">
			<title>Cognitive Services Health and Life Science.18123</title>
			<g id="shape18124-2">
				<title>Sheet.18124</title>
				<path d="M28.35 40.33 C12.69 40.33 0 53.02 0 68.67 C0 84.33 12.69 97.02 28.35 97.02 C44 97.02 56.69 84.33 56.69 68.67
							 C56.69 53.02 44 40.33 28.35 40.33 ZM28.35 40.77 C43.73 40.77 56.25 53.29 56.25 68.67 C56.25 84.06 43.73
							 96.58 28.35 96.58 C12.96 96.58 0.44 84.06 0.44 68.67 C0.44 53.29 12.96 40.77 28.35 40.77 Z"
						class="st1"/>
			</g>
			<g id="shape18125-4" transform="translate(6.64368,-6.6437)">
				<title>Sheet.18125</title>
				<path d="M21.7 53.61 C9.72 53.61 0 63.33 0 75.32 C0 87.3 9.72 97.02 21.7 97.02 C33.69 97.02 43.41 87.3 43.41 75.32
							 C43.41 63.33 33.69 53.61 21.7 53.61 ZM21.7 54.05 C33.43 54.05 42.96 63.59 42.96 75.32 C42.96 87.04 33.43
							 96.58 21.7 96.58 C9.98 96.58 0.44 87.04 0.44 75.32 C0.44 63.59 9.98 54.05 21.7 54.05 Z" class="st1"/>
			</g>
			<g id="shape18126-6" transform="translate(12.8445,-12.8445)">
				<title>Sheet.18126</title>
				<path d="M15.28 66.46 C6.84 66.46 0 73.3 0 81.74 C0 90.18 6.84 97.02 15.28 97.02 C23.72 97.02 30.56 90.18 30.56 81.74
							 C30.56 73.3 23.72 66.46 15.28 66.46 ZM15.28 66.9 C23.46 66.9 30.12 73.56 30.12 81.74 C30.12 89.92 23.46
							 96.57 15.28 96.57 C7.1 96.57 0.44 89.92 0.44 81.74 C0.44 73.56 7.1 66.9 15.28 66.9 Z" class="st1"/>
			</g>
			<g id="shape18127-8" transform="translate(23.0315,-23.0315)">
				<title>Sheet.18127</title>
				<path d="M10.63 91.7 C10.63 94.64 8.25 97.02 5.31 97.02 C2.38 97.02 0 94.64 0 91.7 C0 88.77 2.38 86.39 5.31 86.39
							 C8.25 86.39 10.63 88.77 10.63 91.7 Z" class="st1"/>
			</g>
			<g id="shape18128-10" transform="translate(38.0905,-17.7165)">
				<title>Sheet.18128</title>
				<path d="M5.31 94.36 C5.31 95.83 4.12 97.02 2.66 97.02 C1.19 97.02 0 95.83 0 94.36 C0 92.89 1.19 91.7 2.66 91.7 C4.12
							 91.7 5.31 92.89 5.31 94.36 Z" class="st1"/>
			</g>
			<g id="shape18129-12" transform="translate(10.6299,-24.8031)">
				<title>Sheet.18129</title>
				<path d="M5.31 94.36 C5.31 95.83 4.12 97.02 2.66 97.02 C1.19 97.02 0 95.83 0 94.36 C0 92.89 1.19 91.7 2.66 91.7 C4.12
							 91.7 5.31 92.89 5.31 94.36 Z" class="st1"/>
			</g>
			<g id="shape18130-14" transform="translate(30.1181,-46.063)">
				<title>Sheet.18130</title>
				<path d="M5.31 94.36 C5.31 95.83 4.12 97.02 2.66 97.02 C1.19 97.02 0 95.83 0 94.36 C0 92.89 1.19 91.7 2.66 91.7 C4.12
							 91.7 5.31 92.89 5.31 94.36 Z" class="st2"/>
			</g>
			<g id="shape18131-16" transform="translate(40.748,-1.77165)">
				<title>Sheet.18131</title>
				<path d="M5.31 94.36 C5.31 95.83 4.12 97.02 2.66 97.02 C1.19 97.02 0 95.83 0 94.36 C0 92.89 1.19 91.7 2.66 91.7 C4.12
							 91.7 5.31 92.89 5.31 94.36 Z" class="st1"/>
			</g>
			<g id="shape18132-18" transform="translate(3.54331,-8.85827)">
				<title>Sheet.18132</title>
				<path d="M5.31 94.36 C5.31 95.83 4.12 97.02 2.66 97.02 C1.19 97.02 0 95.83 0 94.36 C0 92.89 1.19 91.7 2.66 91.7 C4.12
							 91.7 5.31 92.89 5.31 94.36 Z" class="st2"/>
			</g>
			<g id="shape18133-20" transform="translate(47.8346,-42.5197)">
				<title>Sheet.18133</title>
				<path d="M5.31 94.36 C5.31 95.83 4.12 97.02 2.66 97.02 C1.19 97.02 0 95.83 0 94.36 C0 92.89 1.19 91.7 2.66 91.7 C4.12
							 91.7 5.31 92.89 5.31 94.36 Z" class="st1"/>
			</g>
		</g>
	</g>
</svg>
